packages/icons/raw/imported/TextBold.svg

<svg width="32" height="32" viewBox="0 0 32 32" fill="none" xmlns="http://www.w3.org/2000/svg">
<path d="M12.8264 10.4616V9.96155H12.3264V10.4616H12.8264ZM12.8264 13.9231H12.3264V14.4231H12.8264V13.9231ZM12.8264 18.0769V17.5769H12.3264V18.0769H12.8264ZM12.8264 21.5385H12.3264V22.0385H12.8264V21.5385ZM19.9216 15.7941L19.6348 15.3846C19.4891 15.4865 19.4086 15.6582 19.4233 15.8353C19.4379 16.0125 19.5455 16.1686 19.7059 16.2453L19.9216 15.7941ZM12.8264 10.9616H16.7377V9.96155H12.8264V10.9616ZM16.7377 13.4231H12.8264V14.4231H16.7377V13.4231ZM13.3264 13.9231V10.4616H12.3264V13.9231H13.3264ZM17.9685 12.1923C17.9685 12.8721 17.4174 13.4231 16.7377 13.4231V14.4231C17.9697 14.4231 18.9685 13.4243 18.9685 12.1923H17.9685ZM16.7377 10.9616C17.4174 10.9616 17.9685 11.5126 17.9685 12.1923H18.9685C18.9685 10.9603 17.9697 9.96155 16.7377 9.96155V10.9616ZM12.8264 18.5769H16.7377V17.5769H12.8264V18.5769ZM16.7377 21.0385H12.8264V22.0385H16.7377V21.0385ZM13.3264 21.5385V18.0769H12.3264V21.5385H13.3264ZM17.9685 19.8077C17.9685 20.4874 17.4174 21.0385 16.7377 21.0385V22.0385C17.9697 22.0385 18.9685 21.0397 18.9685 19.8077H17.9685ZM16.7377 18.5769C17.4174 18.5769 17.9685 19.128 17.9685 19.8077H18.9685C18.9685 18.5757 17.9697 17.5769 16.7377 17.5769V18.5769ZM17.0579 6.5H10.0053V7.5H17.0579V6.5ZM8.8 7.69231V24.3077H9.8V7.69231H8.8ZM10.0053 25.5H17.7632V24.5H10.0053V25.5ZM8.8 24.3077C8.8 24.9749 9.3484 25.5 10.0053 25.5V24.5C9.88312 24.5 9.8 24.4052 9.8 24.3077H8.8ZM10.0053 6.5C9.3484 6.5 8.8 7.02512 8.8 7.69231H9.8C9.8 7.5948 9.88312 7.5 10.0053 7.5V6.5ZM21.4947 11.8462C21.4947 13.3022 20.7639 14.5939 19.6348 15.3846L20.2084 16.2037C21.5891 15.2369 22.4947 13.647 22.4947 11.8462H21.4947ZM17.0579 7.5C19.5171 7.5 21.4947 9.45456 21.4947 11.8462H22.4947C22.4947 8.88487 20.0518 6.5 17.0579 6.5V7.5ZM22.2 20.1538C22.2 22.5454 20.2223 24.5 17.7632 24.5V25.5C20.757 25.5 23.2 23.1151 23.2 20.1538H22.2ZM19.7059 16.2453C21.1872 16.9532 22.2 18.4407 22.2 20.1538H23.2C23.2 18.0336 21.9458 16.2074 20.1372 15.343L19.7059 16.2453Z" fill="black"/>
</svg>

<svg width="32" height="32" fill="none" xmlns="http://www.w3.org/2000/svg"><path d="M12.826 10.462v-.5h-.5v.5h.5Zm0 3.461h-.5v.5h.5v-.5Zm0 4.154v-.5h-.5v.5h.5Zm0 3.461h-.5v.5h.5v-.5Zm7.096-5.744-.287-.41a.5.5 0 0 0 .07.861l.217-.45Zm-7.096-4.832h3.912v-1h-3.912v1Zm3.912 2.461h-3.912v1h3.912v-1Zm-3.412.5v-3.461h-1v3.461h1Zm4.642-1.73c0 .68-.55 1.23-1.23 1.23v1a2.23 2.23 0 0 0 2.23-2.23h-1Zm-1.23-1.231c.68 0 1.23.55 1.23 1.23h1a2.23 2.23 0 0 0-2.23-2.23v1Zm-3.912 7.615h3.912v-1h-3.912v1Zm3.912 2.461h-3.912v1h3.912v-1Zm-3.412.5v-3.461h-1v3.461h1Zm4.642-1.73c0 .68-.55 1.23-1.23 1.23v1a2.23 2.23 0 0 0 2.23-2.23h-1Zm-1.23-1.231c.68 0 1.23.551 1.23 1.23h1a2.23 2.23 0 0 0-2.23-2.23v1Zm.32-12.077h-7.053v1h7.053v-1ZM8.8 7.692v16.616h1V7.692h-1ZM10.005 25.5h7.758v-1h-7.758v1ZM8.8 24.308c0 .667.548 1.192 1.205 1.192v-1a.2.2 0 0 1-.205-.192h-1ZM10.005 6.5c-.657 0-1.205.525-1.205 1.192h1a.2.2 0 0 1 .205-.192v-1Zm11.49 5.346c0 1.456-.731 2.748-1.86 3.539l.573.819a5.314 5.314 0 0 0 2.287-4.358h-1ZM17.058 7.5c2.46 0 4.437 1.955 4.437 4.346h1c0-2.961-2.443-5.346-5.437-5.346v1ZM22.2 20.154c0 2.391-1.978 4.346-4.437 4.346v1c2.994 0 5.437-2.385 5.437-5.346h-1Zm-2.494-3.909c1.481.708 2.494 2.196 2.494 3.909h1c0-2.12-1.254-3.947-3.063-4.811l-.431.902Z" fill="#000"/></svg>
